X:1
T:How Blest Are They Who, Fearing God
T:Text: Psalm 1: vers. Psalter, 1912, alt. Tune: Chales Wesley (the younger), 1757-1834
T:CM EPWORTH www.hymnary.org/text/that_man_is_blest_who_fearing_god
T:How Blest Are They Who, Fearing God
T:This hymn is in the public domain. You may freely use this score for personal and congregational worship. If you reproduce the score, please credit Hymnary.org as the source. 
T:This hymn is in the public domain. You may freely use this score for personal and congregational worship. If you reproduce the score, please credit Hymnary.org as the source. 
Z:This hymn is in the public domain. You may freely use this score for personal and congregational worship. If you reproduce the score, please credit Hymnary.org as the source.
%%score ( 1 2 ) ( 3 4 )
L:1/8
M:4/4
K:C
V:1 treble nm="SOPRANO ALTO" snm="S. A."
V:2 treble 
V:3 bass nm="TENOR BASS" snm="T. B."
V:4 bass 
V:1
"^1""^2""^3""^4""^5" C2 | E2 G2 c3 E | DA GF E2 G2 | c2 B2 AG ^F2 | G6 G2 | F2 E2 A3 F |1 %6
w: How|blest are they who,|fear- * ing * God, from|sin re- strain * their|feet, who|will not with the|
w: How|blest are they who|make * God's * law their|trea- sure and * de-|light, and|med- i- tate up-|
w: Their|lives are nour- ished|like * a * tree set|by the riv- * er's|side— its|leaf is green, its|
w: The|wick- ed, like the|driv- * en * chaff, are|blown a- cross * the|land; they|shall not gath- er|
w: The|LORD will guard the|right- * eous * well, their|way to him * is|known; the|way of sin- ners,|
 E2 D2 G2 G2 | c2 CD E2 D2 | C6 x2 |] %9
w: wick- ed stand, who|shun the * scorn- er's|seat.|
w: on that word with|glad- ness * day and|night.|
w: fruit is sure: so|all their * works a-|bide.|
w: with the just, nor|in the * judg- ment|stand.|
w: far from God, shall|sure- ly * be o'er-|thrown.|
V:2
 G,2 | C2 D2 C2 C2 | D2 D2 C2 D2 | C2 D2 E2 D2 | D6 C2 | C2 ^C2 D3 =C |1 B,2 A,B, C2 B,2 | %7
 C2 C2 C2 B,2 | G,6 x2 |] %9
V:3
 E,2 | G,2 G,2 E,2 A,2 | A,2 B,2 G,2 G,2 | E,^F, G,2 CB, A,2 | B,6 G,2 | A,2 _B,2 A,2 F,A, |1 %6
 G,2 A,2 G,2 F,2 | E,2 A,2 G,2 G,F, | E,6 x2 |] %9
V:4
 C,2 | C,2 B,,2 A,,2 A,,2 | F,,2 G,,2 C,2 B,,2 | A,,2 B,,2 C,2 D,2 | G,6 E,2 | A,2 G,2 F,2 D,2 |1 %6
 G,2 F,2 E,2 D,2 | A,,2 F,,2 G,,2 G,,2 | C,6 x2 |] %9

